X:2376
T:Polska efter Olof Andersson
S:efter Olof Andersson
O:Glöte, Härjedalen
B:EÖ, nr 659
R:Polska
Z:Nils L
M:3/4
L:1/8
U:K=tenuto
U:L=>
K:Am
KA2- A>B c>d | Ke2 (fe) d>B | Kc>d ef e>d | d>B (3cAc B>^G |
(^GA) A>B c>d | e2 fe d>B | c>d ef e>d | d>B (3cAc B>G | (3ABc A4 ::
K:A
(Lga/g/ f>)d Le>c | Le>f d>e Lc>e | ((3gag) ((3fdf) ((3ece) | [d2f2] e4 :: 
K:Am
Le2 ((3cAc) B^G | L((3ABc) (3.A(cA) ^G2 | LAz/(d/ B)z/(c/ A)z/B/ | L[^G2B2] A4 :|
(:musicend:)
(:music:)
